; generated by PrusaSlicer 2.3.3+x64 on 2022-03-01 at 16:45:00 UTC


;
;

;
;
; 

; external perimeters extrusion width = 0.45mm
; perimeters extrusion width = 0.45mm
; infill extrusion width = 0.45mm
; solid infill extrusion width = 0.45mm
; top infill extrusion width = 0.40mm
; support material extrusion width = 0.35mm
; first layer extrusion width = 0.42mm

M73 P0 R72
M201 X1250 Y1250 Z400 E5000 ; sets maximum accelerations, mm/sec^2
M203 X180 Y180 Z12 E80 ; sets maximum feedrates, mm/sec
M204 P1250 R1250 T1250 ; sets acceleration (P, T) and retract acceleration (R), mm/sec^2
M205 X8.00 Y8.00 Z2.00 E10.00 ; sets the jerk limits, mm/sec
M205 S0 T0 ; sets the minimum extruding and travel feed rate, mm/sec
M107
;TYPE:Custom
G90 ; use absolute coordinates
M83 ; extruder relative mode
M104 S170 ; set extruder temp for bed leveling
M140 S100 ; set bed temp
M109 R170 ; wait for bed leveling temp
M190 S100 ; wait for bed temp
G28 ; home all without mesh bed level
G29 ; mesh bed leveling 
M104 S255 ; set extruder temp
G92 E0.0
G1 Y-2.0 X179 F2400
G1 Z3 F720
M109 S255 ; wait for extruder temp

; intro line
G1 X170 F1000
G1 Z0.2 F720
G1 X110.0 E8.0 F900
G1 X40.0 E10.0 F700
G92 E0.0

M221 S95 ; set flow
G21 ; set units to millimeters
G90 ; use absolute coordinates
M83 ; use relative distances for extrusion
M900 K0.2 ; Filament gcode
;LAYER_CHANGE
;Z:0.2
;HEIGHT:0.2
;BEFORE_LAYER_CHANGE
G92 E0.0
;0.2


M73 P0 R71
G1 E-2.70000 F4200.000
G1 Z0.200 F9000.000
;AFTER_LAYER_CHANGE
;0.2
G1 Z0.400
G1 X32.725 Y44.550
G1 Z0.200
G1 E2.70000 F2400.000
M204 S800
;TYPE:Skirt
;WIDTH:0.42
G1 F1200.000
G1 X32.949 Y44.010 E0.01835
G1 X33.295 Y43.543 E0.01823
G1 X35.683 Y41.284 E0.10307
G1 X36.162 Y40.947 E0.01835
G1 X71.128 Y26.361 E1.18790
G1 X74.307 Y25.261 E0.10548
G1 X77.572 Y24.348 E0.10632
G1 X80.913 Y23.634 E0.10711
G1 X84.150 Y23.143 E0.10265
G1 X87.409 Y22.846 E0.10261
G1 X90.829 Y22.739 E0.10727
G1 X94.169 Y22.840 E0.10476
G1 X97.428 Y23.135 E0.10261
G1 X100.807 Y23.646 E0.10715
G1 X104.078 Y24.349 E0.10488
G1 X107.230 Y25.226 E0.10261
G1 X110.476 Y26.344 E0.10763
G1 X145.591 Y40.911 E1.19198
G1 X146.243 Y41.381 E0.02520
G1 X148.503 Y43.886 E0.10578
G1 X148.864 Y44.535 E0.02331
G1 X149.007 Y45.261 E0.02319
G1 X149.000 Y53.964 E0.27288
G1 X145.801 Y84.762 E0.97083
G1 X145.305 Y88.039 E0.10392
G1 X144.592 Y91.369 E0.10679
G1 X143.672 Y94.659 E0.10711
G1 X142.603 Y97.754 E0.10265
G1 X141.351 Y100.778 E0.10261
G1 X139.842 Y103.882 E0.10822
G1 X138.215 Y106.765 E0.10381
G1 X136.439 Y109.514 E0.10262
G1 X134.416 Y112.269 E0.10715
G1 X132.226 Y114.891 E0.10711
G1 X129.981 Y117.274 E0.10265
G1 X127.560 Y119.554 E0.10429
G1 X124.964 Y121.718 E0.10596
G1 X96.780 Y143.326 E1.11350
G1 X96.146 Y143.668 E0.02260
G1 X95.438 Y143.803 E0.02260
G1 X86.167 Y143.632 E0.29072
G1 X85.534 Y143.509 E0.02024
G1 X84.960 Y143.222 E0.02012
G1 X56.693 Y121.724 E1.11346
G1 X54.142 Y119.601 E0.10405
G1 X51.666 Y117.273 E0.10655
G1 X49.374 Y114.838 E0.10488
G1 X47.232 Y112.268 E0.10488
G1 X45.256 Y109.583 E0.10453
G1 X43.397 Y106.703 E0.10747
G1 X41.790 Y103.851 E0.10265
G1 X40.326 Y100.843 E0.10488
G1 X39.046 Y97.753 E0.10488
G1 X37.977 Y94.659 E0.10261
G1 X37.046 Y91.324 E0.10858
G1 X36.354 Y88.098 E0.10345
G1 X35.850 Y84.779 E0.10524
G1 X32.641 Y53.678 E0.98035
G1 X32.640 Y45.160 E0.26708
G1 X32.717 Y44.610 E0.01741
M204 S1250
; printing object Top ring of the bee box id:0 copy 0
G1 X35.017 Y45.183 F9000.000
M204 S800
;TYPE:Support material
G1 F1200.000
G1 X35.017 Y53.589 E0.26358
G1 X35.771 Y53.589 E0.02365
G1 X35.771 Y45.352 E0.25826
G1 X36.525 Y45.352 E0.02365
G1 X36.525 Y53.589 E0.25826
G1 X37.104 Y53.589 E0.01815
G1 X37.104 Y55.896 E0.07234
G1 X37.279 Y55.896 E0.00550
G1 X37.279 Y43.045 E0.40294
G1 X38.033 Y43.045 E0.02365
G1 X38.033 Y55.896 E0.40294
G1 X38.787 Y55.896 E0.02365
G1 X38.787 Y43.045 E0.40294
G1 X39.542 Y43.045 E0.02365
G1 X39.542 Y55.896 E0.40294
G1 X40.296 Y55.896 E0.02365
G1 X40.296 Y43.045 E0.40294
G1 X41.050 Y43.045 E0.02365
G1 X41.050 Y55.896 E0.40294
G1 X41.804 Y55.896 E0.02365
G1 X41.804 Y43.045 E0.40294
G1 X42.558 Y43.045 E0.02365
G1 X42.558 Y55.185 E0.38062
G1 X43.312 Y53.636 E0.05402
G1 X43.312 Y43.045 E0.33205
G1 X44.067 Y43.045 E0.02365
G1 X44.067 Y52.247 E0.28852
M73 P1 R71
G1 X44.821 Y50.910 E0.04813
G1 X44.821 Y43.045 E0.24660
G1 X45.341 Y43.045 E0.01630
G1 X45.341 Y45.352 E0.07234
G1 X45.575 Y45.352 E0.00734
G1 X45.575 Y49.687 E0.13591
G1 X46.329 Y48.520 E0.04355
G1 X46.329 Y45.352 E0.09933
G1 X47.083 Y45.352 E0.02365
G1 X47.083 Y47.402 E0.06428
G1 X47.837 Y46.378 E0.03990
G1 X47.837 Y45.352 E0.03215
G1 X48.591 Y45.352 E0.02365
G1 X48.591 Y45.639 E0.00899
M204 S1250
G1 E-2.70000 F4200.000
G1 Z0.400 F9000.000
G1 X133.057 Y45.183
G1 Z0.200
G1 E2.70000 F2400.000
M204 S800
G1 F1200.000
G1 X133.057 Y45.353 E0.00533
G1 X133.811 Y46.378 E0.03990
G1 X133.811 Y45.352 E0.03215
G1 X134.566 Y45.352 E0.02365
G1 X134.566 Y47.402 E0.06428
G1 X134.822 Y47.752 E0.01358
G1 X135.320 Y48.520 E0.02871
G1 X135.320 Y45.352 E0.09933
G1 X136.074 Y45.352 E0.02365
G1 X136.074 Y49.687 E0.13591
G1 X136.566 Y50.449 E0.02844
G1 X136.828 Y50.910 E0.01663
G1 X136.828 Y43.045 E0.24660
G1 X137.582 Y43.045 E0.02365
G1 X137.582 Y52.247 E0.28852
G1 X138.148 Y53.250 E0.03610
G1 X138.336 Y53.636 E0.01345
G1 X138.336 Y43.045 E0.33205
G1 X139.091 Y43.045 E0.02365
G1 X139.091 Y55.185 E0.38062
G1 X139.437 Y55.896 E0.02482
G1 X139.845 Y55.896 E0.01278
G1 X139.845 Y43.045 E0.40294
G1 X140.599 Y43.045 E0.02365
G1 X140.599 Y55.896 E0.40294
G1 X141.353 Y55.896 E0.02365
G1 X141.353 Y43.045 E0.40294
G1 X142.107 Y43.045 E0.02365
G1 X142.107 Y55.896 E0.40294
G1 X142.861 Y55.896 E0.02365
G1 X142.861 Y43.045 E0.40294
G1 X143.616 Y43.045 E0.02365
G1 X143.616 Y55.896 E0.40294
G1 X144.370 Y55.896 E0.02365
G1 X144.370 Y43.045 E0.40294
G1 X144.545 Y43.045 E0.00550
G1 X144.545 Y45.352 E0.07234
G1 X145.124 Y45.352 E0.01815
G1 X145.124 Y53.589 E0.25826
G1 X145.878 Y53.589 E0.02365
G1 X145.878 Y45.352 E0.25826
G1 X146.632 Y45.352 E0.02365
G1 X146.632 Y53.759 E0.26358
M204 S1250
G1 E-2.70000 F4200.000
G1 Z0.400 F9000.000
G1 X86.299 Y131.189
G1 Z0.200
G1 E2.70000 F2400.000
M204 S800
G1 F1200.000
G1 X86.299 Y141.258 E0.31570
G1 X87.054 Y141.258 E0.02365
G1 X87.054 Y131.428 E0.30821
G1 X87.808 Y131.485 E0.02371
G1 X87.808 Y141.258 E0.30645
G1 X88.562 Y141.258 E0.02365
G1 X88.562 Y131.507 E0.30573
G1 X89.316 Y131.530 E0.02366
G1 X89.316 Y141.258 E0.30502
G1 X90.070 Y141.258 E0.02365
G1 X90.070 Y131.553 E0.30430
G1 X90.824 Y131.575 E0.02366
G1 X90.824 Y141.258 E0.30361
G1 X91.579 Y141.258 E0.02365
G1 X91.579 Y131.553 E0.30430
G1 X92.333 Y131.530 E0.02366
G1 X92.333 Y141.258 E0.30502
G1 X93.087 Y141.258 E0.02365
G1 X93.087 Y131.507 E0.30573
G1 X93.841 Y131.485 E0.02366
G1 X93.841 Y141.258 E0.30645
G1 X94.595 Y141.258 E0.02365
G1 X94.595 Y131.428 E0.30821
G1 X95.349 Y131.360 E0.02374
G1 X95.349 Y141.428 E0.31568
M204 S1250
G1 E-2.70000 F4200.000
G1 Z0.400 F9000.000
G1 X94.058 Y127.770
G1 Z0.200
G1 E2.70000 F2400.000
M204 S800
;TYPE:Perimeter
G1 F1200.000
G1 X90.841 Y127.878 E0.10092
G1 X87.649 Y127.776 E0.10014
G1 X84.606 Y127.488 E0.09584
G1 X81.519 Y127.000 E0.09800
G1 X78.402 Y126.302 E0.10014
G1 X75.467 Y125.449 E0.09584
G1 X72.526 Y124.391 E0.09800
G1 X69.595 Y123.121 E0.10014
G1 X66.871 Y121.734 E0.09584
G1 X64.181 Y120.144 E0.09799
G1 X61.595 Y118.389 E0.09800
G1 X59.124 Y116.474 E0.09800
G1 X56.729 Y114.361 E0.10014
G1 X54.568 Y112.200 E0.09584
G1 X52.500 Y109.856 E0.09799
G1 X50.583 Y107.388 E0.09799
G1 X48.824 Y104.804 E0.09800
G1 X47.199 Y102.054 E0.10014
G1 X45.811 Y99.331 E0.09584
G1 X44.568 Y96.463 E0.09800
G1 X43.487 Y93.458 E0.10015
G1 X42.634 Y90.522 E0.09584
G1 X41.950 Y87.472 E0.09800
G1 X41.451 Y84.318 E0.10015
G1 X41.163 Y81.275 E0.09584
G1 X41.063 Y78.151 E0.09799
G1 X41.163 Y74.958 E0.10015
G1 X41.460 Y71.847 E0.09800
G1 X41.950 Y68.760 E0.09799
G1 X42.634 Y65.710 E0.09799
G1 X43.487 Y62.775 E0.09584
G1 X44.568 Y59.770 E0.10015
G1 X45.811 Y56.902 E0.09800
G1 X47.199 Y54.179 E0.09584
G1 X48.824 Y51.429 E0.10014
G1 X50.583 Y48.845 E0.09800
G1 X52.456 Y46.430 E0.09584
G1 X54.568 Y44.033 E0.10014
G1 X56.779 Y41.824 E0.09800
G1 X59.072 Y39.803 E0.09584
G1 X61.595 Y37.844 E0.10014
G1 X64.181 Y36.089 E0.09800
G1 X66.812 Y34.533 E0.09584
G1 X69.657 Y33.081 E0.10014
G1 X72.526 Y31.841 E0.09800
G1 X75.402 Y30.806 E0.09584
G1 X78.468 Y29.913 E0.10014
G1 X81.519 Y29.232 E0.09800
G1 X84.606 Y28.745 E0.09800
G1 X87.718 Y28.452 E0.09799
G1 X90.773 Y28.356 E0.09584
G1 X93.965 Y28.454 E0.10014
G1 X97.077 Y28.749 E0.09800
G1 X100.164 Y29.239 E0.09800
G1 X103.214 Y29.921 E0.09799
G1 X106.149 Y30.774 E0.09584
G1 X109.155 Y31.854 E0.10014
G1 X112.023 Y33.096 E0.09800
G1 X114.747 Y34.483 E0.09584
G1 X117.497 Y36.107 E0.10014
G1 X120.082 Y37.864 E0.09800
G1 X122.497 Y39.738 E0.09584
G1 X124.895 Y41.847 E0.10014
G1 X127.105 Y44.058 E0.09801
G1 X129.126 Y46.351 E0.09584
G1 X131.087 Y48.872 E0.10014
G1 X132.843 Y51.458 E0.09801
G1 X134.434 Y54.148 E0.09800
G1 X135.852 Y56.933 E0.09799
G1 X137.066 Y59.738 E0.09584
G1 X138.152 Y62.742 E0.10014
G1 X139.024 Y65.744 E0.09801
G1 X139.705 Y68.794 E0.09800
G1 X140.194 Y71.881 E0.09799
M73 P1 R70
G1 X140.482 Y74.924 E0.09584
G1 X140.586 Y78.116 E0.10015
G1 X140.482 Y81.309 E0.10015
G1 X140.194 Y84.352 E0.09584
G1 X139.705 Y87.439 E0.09800
G1 X139.005 Y90.555 E0.10014
G1 X138.152 Y93.490 E0.09584
G1 X137.093 Y96.431 E0.09801
G1 X135.821 Y99.361 E0.10014
G1 X134.434 Y102.084 E0.09584
G1 X132.843 Y104.775 E0.09799
G1 X131.087 Y107.360 E0.09800
G1 X129.171 Y109.830 E0.09801
G1 X127.057 Y112.224 E0.10014
G1 X124.895 Y114.385 E0.09584
G1 X122.551 Y116.452 E0.09799
G1 X120.082 Y118.368 E0.09800
G1 X117.497 Y120.126 E0.09801
G1 X114.747 Y121.749 E0.10014
G1 X112.023 Y123.137 E0.09584
G1 X109.155 Y124.379 E0.09800
G1 X106.149 Y125.458 E0.10014
G1 X103.214 Y126.311 E0.09584
G1 X100.163 Y126.994 E0.09800
G1 X97.009 Y127.491 E0.10014
G1 X94.118 Y127.764 E0.09103
M204 S1250
G1 X94.083 Y127.389 F9000.000
M204 S800
;TYPE:External perimeter
G1 F1200.000
G1 X90.841 Y127.501 E0.10168
G1 X87.673 Y127.399 E0.09940
G1 X84.653 Y127.114 E0.09510
G1 X81.589 Y126.630 E0.09725
G1 X78.496 Y125.936 E0.09940
G1 X75.583 Y125.090 E0.09510
G1 X72.664 Y124.041 E0.09725
G1 X69.756 Y122.780 E0.09940
G1 X67.053 Y121.403 E0.09510
G1 X64.383 Y119.825 E0.09725
G1 X61.816 Y118.083 E0.09725
G1 X59.365 Y116.183 E0.09725
G1 X56.987 Y114.086 E0.09940
G1 X54.843 Y111.941 E0.09510
G1 X52.790 Y109.616 E0.09725
G1 X50.888 Y107.166 E0.09725
G1 X49.143 Y104.601 E0.09725
G1 X47.530 Y101.872 E0.09940
G1 X46.153 Y99.170 E0.09510
G1 X44.919 Y96.324 E0.09725
G1 X43.846 Y93.341 E0.09940
G1 X43.000 Y90.428 E0.09510
G1 X42.321 Y87.402 E0.09725
G1 X41.825 Y84.270 E0.09940
G1 X41.540 Y81.251 E0.09510
G1 X41.440 Y78.151 E0.09725
G1 X41.540 Y74.982 E0.09940
G1 X41.834 Y71.894 E0.09725
G1 X42.321 Y68.831 E0.09725
G1 X43.000 Y65.804 E0.09725
G1 X43.846 Y62.892 E0.09510
G1 X44.919 Y59.909 E0.09940
G1 X46.153 Y57.063 E0.09725
G1 X47.530 Y54.360 E0.09510
G1 X49.143 Y51.631 E0.09940
G1 X50.888 Y49.067 E0.09725
G1 X52.747 Y46.670 E0.09510
G1 X54.843 Y44.291 E0.09940
G1 X57.037 Y42.099 E0.09725
G1 X59.312 Y40.093 E0.09510
G1 X61.816 Y38.149 E0.09940
G1 X64.383 Y36.407 E0.09725
G1 X66.993 Y34.863 E0.09510
G1 X69.817 Y33.423 E0.09940
M73 P2 R70
G1 X72.665 Y32.192 E0.09725
G1 X75.518 Y31.165 E0.09510
G1 X78.562 Y30.278 E0.09940
G1 X81.590 Y29.603 E0.09726
G1 X84.653 Y29.119 E0.09725
G1 X87.741 Y28.828 E0.09725
G1 X90.773 Y28.733 E0.09510
G1 X93.942 Y28.830 E0.09940
G1 X97.030 Y29.123 E0.09726
G1 X100.093 Y29.609 E0.09725
G1 X103.120 Y30.287 E0.09725
G1 X106.033 Y31.133 E0.09510
G1 X109.016 Y32.204 E0.09940
G1 X111.863 Y33.437 E0.09726
G1 X114.565 Y34.814 E0.09510
G1 X117.295 Y36.425 E0.09940
G1 X119.860 Y38.169 E0.09726
G1 X122.257 Y40.028 E0.09510
G1 X124.637 Y42.123 E0.09940
G1 X126.830 Y44.316 E0.09726
G1 X128.836 Y46.591 E0.09510
G1 X130.781 Y49.094 E0.09940
G1 X132.525 Y51.660 E0.09726
G1 X134.103 Y54.330 E0.09725
G1 X135.511 Y57.094 E0.09725
G1 X136.716 Y59.877 E0.09510
G1 X137.793 Y62.859 E0.09940
G1 X138.658 Y65.838 E0.09726
G1 X139.335 Y68.865 E0.09725
G1 X139.820 Y71.928 E0.09725
G1 X140.105 Y74.948 E0.09511
G1 X140.209 Y78.116 E0.09940
G1 X140.105 Y81.285 E0.09940
G1 X139.820 Y84.305 E0.09511
G1 X139.335 Y87.368 E0.09725
G1 X138.639 Y90.461 E0.09940
G1 X137.793 Y93.374 E0.09510
G1 X136.743 Y96.292 E0.09726
G1 X135.480 Y99.200 E0.09940
G1 X134.103 Y101.903 E0.09510
G1 X132.525 Y104.573 E0.09725
G1 X130.781 Y107.138 E0.09725
G1 X128.881 Y109.590 E0.09726
G1 X126.782 Y111.965 E0.09940
G1 X124.637 Y114.110 E0.09510
G1 X122.311 Y116.162 E0.09725
G1 X119.860 Y118.063 E0.09725
G1 X117.295 Y119.807 E0.09726
G1 X114.565 Y121.419 E0.09940
G1 X111.863 Y122.796 E0.09510
G1 X109.016 Y124.028 E0.09726
G1 X106.033 Y125.100 E0.09940
G1 X103.120 Y125.946 E0.09510
G1 X100.093 Y126.623 E0.09725
G1 X96.961 Y127.117 E0.09940
G1 X94.142 Y127.383 E0.08879
M204 S1250
G1 X93.906 Y127.748 F9000.000
G1 X94.398 Y130.195
M204 S800
;TYPE:Perimeter
G1 F1200.000
G1 X93.975 Y130.234 E0.01331
G1 X90.824 Y130.329 E0.09884
G1 X87.673 Y130.234 E0.09883
G1 X84.531 Y129.948 E0.09894
G1 X81.413 Y129.474 E0.09889
G1 X78.329 Y128.812 E0.09889
G1 X75.291 Y127.965 E0.09889
G1 X72.310 Y126.936 E0.09889
G1 X69.396 Y125.729 E0.09889
G1 X66.560 Y124.348 E0.09889
G1 X63.813 Y122.799 E0.09889
G1 X61.164 Y121.086 E0.09889
G1 X58.624 Y119.217 E0.09889
G1 X56.201 Y117.198 E0.09889
G1 X53.905 Y115.036 E0.09889
G1 X51.743 Y112.740 E0.09889
G1 X49.724 Y110.317 E0.09889
G1 X47.854 Y107.776 E0.09889
G1 X46.142 Y105.128 E0.09889
G1 X44.592 Y102.381 E0.09889
G1 X43.212 Y99.545 E0.09889
G1 X42.005 Y96.631 E0.09889
G1 X40.976 Y93.650 E0.09889
G1 X40.129 Y90.612 E0.09889
G1 X39.467 Y87.528 E0.09889
G1 X38.993 Y84.410 E0.09889
G1 X38.707 Y81.269 E0.09889
G1 X38.612 Y78.116 E0.09889
G1 X38.707 Y74.964 E0.09889
G1 X38.993 Y71.823 E0.09889
G1 X39.467 Y68.705 E0.09889
G1 X40.136 Y65.596 E0.09970
G1 X40.976 Y62.583 E0.09808
G1 X42.005 Y59.602 E0.09889
G1 X43.212 Y56.688 E0.09889
G1 X44.593 Y53.850 E0.09895
G1 X46.150 Y51.091 E0.09932
G1 X47.854 Y48.457 E0.09837
G1 X49.724 Y45.916 E0.09892
G1 X51.743 Y43.493 E0.09889
G1 X53.905 Y41.196 E0.09889
G1 X56.201 Y39.035 E0.09889
G1 X58.624 Y37.015 E0.09889
G1 X61.164 Y35.146 E0.09889
G1 X63.813 Y33.434 E0.09889
G1 X66.560 Y31.884 E0.09889
G1 X69.396 Y30.504 E0.09889
G1 X72.310 Y29.297 E0.09889
G1 X75.291 Y28.268 E0.09889
G1 X78.329 Y27.421 E0.09889
G1 X81.413 Y26.759 E0.09889
G1 X84.531 Y26.284 E0.09889
G1 X87.672 Y25.999 E0.09889
G1 X90.850 Y25.905 E0.09970
G1 X93.977 Y25.999 E0.09808
G1 X97.118 Y26.284 E0.09889
G1 X100.236 Y26.759 E0.09889
G1 X103.320 Y27.421 E0.09889
G1 X106.358 Y28.268 E0.09889
G1 X109.339 Y29.297 E0.09889
G1 X112.253 Y30.504 E0.09889
G1 X115.089 Y31.884 E0.09889
G1 X117.836 Y33.434 E0.09889
G1 X120.484 Y35.146 E0.09889
G1 X123.025 Y37.015 E0.09889
G1 X125.448 Y39.035 E0.09889
G1 X127.744 Y41.196 E0.09889
G1 X129.906 Y43.493 E0.09889
G1 X131.925 Y45.916 E0.09889
G1 X133.795 Y48.457 E0.09892
G1 X135.266 Y50.732 E0.08496
G1 X135.528 Y51.141 E0.01521
G1 X137.055 Y53.850 E0.09751
G1 X138.437 Y56.688 E0.09896
G1 X139.644 Y59.602 E0.09889
G1 X140.673 Y62.583 E0.09889
G1 X141.520 Y65.621 E0.09889
G1 X142.182 Y68.705 E0.09889
G1 X142.656 Y71.823 E0.09889
G1 X142.942 Y74.964 E0.09889
G1 X143.037 Y78.116 E0.09889
G1 X142.942 Y81.269 E0.09889
G1 X142.656 Y84.410 E0.09889
G1 X142.182 Y87.528 E0.09889
G1 X141.513 Y90.637 E0.09970
G1 X140.673 Y93.650 E0.09808
G1 X139.644 Y96.631 E0.09889
G1 X138.437 Y99.545 E0.09889
G1 X137.056 Y102.381 E0.09889
G1 X135.507 Y105.128 E0.09889
G1 X133.794 Y107.776 E0.09889
G1 X131.925 Y110.317 E0.09889
G1 X129.906 Y112.740 E0.09889
G1 X127.744 Y115.036 E0.09889
G1 X125.448 Y117.198 E0.09889
G1 X123.025 Y119.217 E0.09889
G1 X120.463 Y121.100 E0.09970
G1 X117.836 Y122.799 E0.09808
G1 X115.089 Y124.348 E0.09889
G1 X112.253 Y125.729 E0.09889
G1 X109.339 Y126.936 E0.09889
G1 X106.358 Y127.965 E0.09889
G1 X103.320 Y128.812 E0.09889
G1 X100.236 Y129.474 E0.09889
